X:123
T:Johnnie Armstrong - a little different from the above
Z:Jack Campin - http://www.campin.me.uk
S:Blaikie MS (NLS MS.1578) p36, Blaikie #117
M:C
L:1/8
V:1 midi program 1 74
V:2 midi program 1 46 bass middle = d transpose -24
Q:1/4=80
K:C
[V:1] G|c>ded  cAGF |E2FF G2zG|c3 B A3 G|GABc d3 G|
[V:2] z|c2 c'2 c2c'2|c2G2 C2z2|e2g2 f2e2|g2d2 G2z2|
%
[V:1]   c>ded  cAGF |E2FF G2zG|d2eg B2cA|G2AB c3 |]
[V:2]   c2 c'2 c2c'2|c2G2 C2z2|G2g2 g2ef|g2G2 c3 |]
W:Transcription (c) Jack Campin 2009, no mirroring or republication without permission

